GeneralPlan/dist/assets/img/footer-location-icon.svg

<svg width="15" height="20" viewBox="0 0 15 20" fill="none" xmlns="http://www.w3.org/2000/svg">
<path d="M7.24414 0C3.38207 0 0.244141 3 0.244141 6.75C0.244141 8.25 1.20966 10.5 3.38207 14C4.83035 16.5 6.27862 18.5 6.27862 18.5L7.24414 20L8.20966 18.5C8.20966 18.5 9.65793 16.25 11.1062 14C13.2786 10.5 14.2441 8.25 14.2441 6.75C14.2441 3 11.1062 0 7.24414 0ZM7.24414 10C5.31311 10 3.62345 8.5 3.62345 6.5C3.62345 4.5 5.31311 3 7.24414 3C9.17518 3 10.8648 4.5 10.8648 6.5C10.8648 8.5 9.17518 10 7.24414 10Z" fill="white"/>
</svg>

<svg width="15" height="20" fill="none" xmlns="http://www.w3.org/2000/svg"><path d="M7.244 0c-3.862 0-7 3-7 6.75 0 1.5.966 3.75 3.138 7.25 1.448 2.5 2.897 4.5 2.897 4.5l.965 1.5.966-1.5 2.896-4.5c2.173-3.5 3.138-5.75 3.138-7.25 0-3.75-3.138-6.75-7-6.75zm0 10c-1.93 0-3.62-1.5-3.62-3.5S5.313 3 7.243 3c1.931 0 3.62 1.5 3.62 3.5S9.176 10 7.245 10z" fill="#fff"/></svg>
